X:1080
T: Lady from Baltimore
S: B.Breathnach:"Ceol Rince na hEireann" IV/124
Z: B.Black
L: 1/8
M: 4/4
R: reel
K: G
D|G2 BG E2 AG|FDEF GFED|G2 BG E2 AG|FDEF G3 :|
z|gfge BcdB|cBcd edef|gfgd Bcdf|ecAF G3 f|
gfge BcdB|cBcd edef|gfgd Bcdf|ecAF GFED ||
